X: 23020
T: Last Night's Fun
R: slip jig
M: 9/8
K: Dmixolydian
D3 A2G ABc|D3 AGE G2E|D3 A2G ABc|BAG AGE G2E:|
B3 dBG ABc|BAB dBG c2A|1 B3 dBG A3|BAG AGE G2E:|2 def gfe dBG|BAG AGE G2E:|

